X:1
T:Saffron Walden, 88.86
T:Saffron Walden, 88.86
T:Arthur Henry Brown, 1890
T:Public Domain Courtesy of the Cyber Hymnal™
C:Arthur Henry Brown, 1890
Z:Public Domain
Z:Courtesy of the Cyber Hymnal™
%%score ( 1 2 ) ( 3 4 )
L:1/8
M:3/4
K:D
V:1 treble 
V:2 treble 
V:3 bass 
V:4 bass 
V:1
 [DF]2 [CE]2 D2 | [DA]4 [Ad]2 | (d2 c2) [GB]2 | [GA]6 | A2 G2 z x3 | [B,E]2 [A,C]2 [A,D]2 | %6
 G3 z A [DF]2 | [CE]4 [CE]2 | A4 [EA]2 | [DA]4 [Dd]2 | (d2 B2) [DG]2 | [CE]6 | [CA]2 D2 [DE]2 | %13
 [DF]4 [CE]2 | D6 |] %15
V:2
 x4 D2 | x6 | G4 x2 | x6 | (FE) D3 F2 C | x6 | B,2 C2 x3 | x6 | (C2 D2) x2 | x6 | D4 x2 | x6 | %12
 x2 D2 x2 | x6 | D6 |] %15
V:3
 [D,A,]2 [A,,G,]2 [B,,F,]2 | [F,,A,]4 [F,A,]2 | (B,2 C2) [D,D]2 | [C,E]6 | %4
 (DC) [D,B,]2 [D,A,]2 x2 | G,4 [F,A,]2 | [E,G,]4 [D,A,]2 x | [A,,A,]4 A,2 | (A,2 [G,C]2) x2 | %9
 [F,D]4 [F,=C]2 | [G,B,]4 [E,B,]2 | [A,,A,]6 | [F,,A,]2 [B,,F,]2 [G,,B,]2 | [A,,A,]4 [A,,G,]2 | %14
 [D,F,]6 |] %15
V:4
 x6 | x6 | E,4 x2 | x6 | D,2 x6 | G,4 x2 | x7 | x4 A,2 | A,4 B,2 | x6 | x6 | x6 | x6 | x6 | x6 |] %15

